inst/assets/svg/wi-night-cloudy-gusts.svg

<?xml version="1.0" encoding="UTF-8"?>
<svg xmlns="http://www.w3.org/2000/svg" xmlns:xlink="http://www.w3.org/1999/xlink" width="30pt" height="30pt" viewBox="0 0 30 30" version="1.1">
<g id="surface701">
<path style=" stroke:none;fill-rule:nonzero;fill:rgb(0%,0%,0%);fill-opacity:1;" d="M 3.058594 20.980469 C 3.058594 21.21875 3.148438 21.421875 3.328125 21.578125 C 3.511719 21.761719 3.710938 21.851563 3.941406 21.851563 L 9.820313 21.851563 C 10.078125 21.851563 10.308594 21.941406 10.511719 22.128906 C 10.710938 22.320313 10.808594 22.550781 10.808594 22.808594 C 10.808594 23.070313 10.710938 23.289063 10.511719 23.488281 C 10.308594 23.691406 10.078125 23.789063 9.828125 23.789063 C 9.578125 23.789063 9.351563 23.691406 9.148438 23.488281 C 8.960938 23.320313 8.761719 23.230469 8.53125 23.230469 C 8.300781 23.230469 8.101563 23.308594 7.941406 23.480469 C 7.78125 23.648438 7.699219 23.851563 7.699219 24.089844 C 7.699219 24.328125 7.78125 24.53125 7.941406 24.691406 C 8.460938 25.210938 9.089844 25.46875 9.820313 25.46875 C 10.558594 25.46875 11.199219 25.210938 11.710938 24.699219 C 12.230469 24.179688 12.488281 23.558594 12.488281 22.820313 C 12.488281 22.078125 12.230469 21.441406 11.710938 20.921875 C 11.191406 20.398438 10.558594 20.128906 9.820313 20.128906 L 3.941406 20.128906 C 3.699219 20.128906 3.5 20.210938 3.320313 20.378906 C 3.140625 20.550781 3.058594 20.75 3.058594 20.980469 Z M 3.058594 17.96875 C 3.058594 18.199219 3.148438 18.390625 3.328125 18.550781 C 3.480469 18.710938 3.679688 18.789063 3.941406 18.789063 L 14.929688 18.789063 C 15.671875 18.789063 16.300781 18.53125 16.820313 18.011719 C 17.339844 17.488281 17.601563 16.859375 17.601563 16.128906 C 17.601563 15.398438 17.339844 14.769531 16.820313 14.25 C 16.300781 13.730469 15.671875 13.480469 14.929688 13.480469 C 14.171875 13.480469 13.539063 13.730469 13.039063 14.230469 C 12.890625 14.398438 12.808594 14.609375 12.808594 14.859375 C 12.808594 15.101563 12.890625 15.289063 13.039063 15.449219 C 13.191406 15.609375 13.390625 15.679688 13.640625 15.679688 C 13.890625 15.679688 14.089844 15.609375 14.25 15.449219 C 14.441406 15.261719 14.671875 15.171875 14.929688 15.171875 C 15.191406 15.171875 15.410156 15.261719 15.609375 15.449219 C 15.800781 15.640625 15.898438 15.871094 15.898438 16.128906 C 15.898438 16.390625 15.800781 16.628906 15.609375 16.820313 C 15.421875 17.011719 15.191406 17.109375 14.929688 17.109375 L 3.941406 17.109375 C 3.699219 17.109375 3.5 17.191406 3.320313 17.359375 C 3.140625 17.539063 3.058594 17.738281 3.058594 17.96875 Z M 5.710938 15.628906 C 5.710938 15.710938 5.769531 15.75 5.878906 15.75 L 7.308594 15.75 C 7.390625 15.75 7.460938 15.699219 7.53125 15.609375 C 7.761719 15.070313 8.101563 14.621094 8.578125 14.261719 C 9.050781 13.898438 9.578125 13.699219 10.171875 13.660156 L 10.691406 13.589844 C 10.808594 13.589844 10.878906 13.53125 10.878906 13.398438 L 10.949219 12.898438 C 11.058594 11.820313 11.519531 10.910156 12.328125 10.191406 C 13.140625 9.460938 14.101563 9.101563 15.191406 9.101563 C 16.28125 9.101563 17.230469 9.460938 18.039063 10.179688 C 18.851563 10.898438 19.308594 11.808594 19.429688 12.898438 L 19.5 13.46875 C 19.5 13.589844 19.558594 13.648438 19.679688 13.648438 L 21.308594 13.648438 C 22.210938 13.648438 22.980469 13.96875 23.621094 14.601563 C 24.261719 15.230469 24.578125 15.988281 24.578125 16.878906 C 24.578125 17.769531 24.261719 18.539063 23.621094 19.171875 C 22.980469 19.800781 22.210938 20.121094 21.308594 20.121094 L 14.398438 20.121094 C 14.289063 20.121094 14.230469 20.179688 14.230469 20.300781 L 14.230469 21.671875 C 14.230469 21.789063 14.289063 21.851563 14.398438 21.851563 L 21.308594 21.851563 C 22.199219 21.851563 23.03125 21.628906 23.789063 21.179688 C 24.550781 20.738281 25.148438 20.128906 25.589844 19.371094 C 26.03125 18.609375 26.25 17.78125 26.25 16.878906 C 26.25 16.140625 26.109375 15.460938 25.828125 14.859375 C 26.589844 13.859375 26.96875 12.75 26.96875 11.53125 C 26.96875 10.820313 26.828125 10.140625 26.550781 9.488281 C 26.269531 8.839844 25.898438 8.289063 25.429688 7.820313 C 24.960938 7.351563 24.398438 6.980469 23.761719 6.710938 C 23.121094 6.441406 22.421875 6.300781 21.710938 6.300781 C 20.171875 6.300781 18.871094 6.878906 17.828125 8.03125 C 17.050781 7.621094 16.160156 7.421875 15.179688 7.421875 C 13.769531 7.421875 12.519531 7.859375 11.429688 8.730469 C 10.339844 9.601563 9.660156 10.71875 9.359375 12.078125 C 8.511719 12.28125 7.761719 12.691406 7.101563 13.308594 C 6.441406 13.929688 5.988281 14.660156 5.730469 15.488281 L 5.730469 15.53125 C 5.71875 15.578125 5.710938 15.621094 5.710938 15.628906 Z M 19.238281 9 C 19.960938 8.320313 20.78125 7.980469 21.71875 7.980469 C 22.699219 7.980469 23.53125 8.328125 24.230469 9.03125 C 24.929688 9.730469 25.28125 10.558594 25.28125 11.53125 C 25.28125 12.140625 25.109375 12.75 24.769531 13.378906 C 23.808594 12.421875 22.660156 11.949219 21.300781 11.949219 L 20.96875 11.949219 C 20.730469 10.878906 20.160156 9.890625 19.238281 9 Z M 19.238281 9 "/>
</g>
</svg>

<?xml version="1.0" encoding="utf-8"?>
<!-- Generator: Adobe Illustrator 22.0.1, SVG Export Plug-In . SVG Version: 6.00 Build 0)  -->
<svg version="1.1" id="Layer_1" xmlns="http://www.w3.org/2000/svg" xmlns:xlink="http://www.w3.org/1999/xlink" x="0px" y="0px"
	 viewBox="0 0 30 30" style="enable-background:new 0 0 30 30;" xml:space="preserve">
<path d="M3.06,20.98c0,0.24,0.09,0.44,0.27,0.6c0.18,0.18,0.38,0.27,0.61,0.27h5.88c0.26,0,0.49,0.09,0.69,0.28
	c0.2,0.19,0.3,0.42,0.3,0.68c0,0.26-0.1,0.48-0.3,0.68s-0.43,0.3-0.68,0.3c-0.25,0-0.48-0.1-0.68-0.3
	c-0.19-0.17-0.39-0.26-0.62-0.26c-0.23,0-0.43,0.08-0.59,0.25c-0.16,0.17-0.24,0.37-0.24,0.61s0.08,0.44,0.24,0.6
	c0.52,0.52,1.15,0.78,1.88,0.78c0.74,0,1.38-0.26,1.89-0.77c0.52-0.52,0.78-1.14,0.78-1.88c0-0.74-0.26-1.38-0.78-1.9
	c-0.52-0.52-1.15-0.79-1.89-0.79H3.94c-0.24,0-0.44,0.08-0.62,0.25C3.14,20.55,3.06,20.75,3.06,20.98z M3.06,17.97
	c0,0.23,0.09,0.42,0.27,0.58c0.15,0.16,0.35,0.24,0.61,0.24h10.99c0.74,0,1.37-0.26,1.89-0.78c0.52-0.52,0.78-1.15,0.78-1.88
	s-0.26-1.36-0.78-1.88c-0.52-0.52-1.15-0.77-1.89-0.77c-0.76,0-1.39,0.25-1.89,0.75c-0.15,0.17-0.23,0.38-0.23,0.63
	c0,0.24,0.08,0.43,0.23,0.59s0.35,0.23,0.6,0.23c0.25,0,0.45-0.07,0.61-0.23c0.19-0.19,0.42-0.28,0.68-0.28
	c0.26,0,0.48,0.09,0.68,0.28c0.19,0.19,0.29,0.42,0.29,0.68s-0.1,0.5-0.29,0.69c-0.19,0.19-0.42,0.29-0.68,0.29H3.94
	c-0.24,0-0.44,0.08-0.62,0.25C3.14,17.54,3.06,17.74,3.06,17.97z M5.71,15.63c0,0.08,0.06,0.12,0.17,0.12h1.43
	c0.08,0,0.15-0.05,0.22-0.14c0.23-0.54,0.57-0.99,1.05-1.35c0.47-0.36,1-0.56,1.59-0.6l0.52-0.07c0.12,0,0.19-0.06,0.19-0.19
	l0.07-0.5c0.11-1.08,0.57-1.99,1.38-2.71c0.81-0.73,1.77-1.09,2.86-1.09s2.04,0.36,2.85,1.08c0.81,0.72,1.27,1.63,1.39,2.72
	l0.07,0.57c0,0.12,0.06,0.18,0.18,0.18h1.63c0.9,0,1.67,0.32,2.31,0.95c0.64,0.63,0.96,1.39,0.96,2.28c0,0.89-0.32,1.66-0.96,2.29
	c-0.64,0.63-1.41,0.95-2.31,0.95h-6.91c-0.11,0-0.17,0.06-0.17,0.18v1.37c0,0.12,0.06,0.18,0.17,0.18h6.91
	c0.89,0,1.72-0.22,2.48-0.67c0.76-0.44,1.36-1.05,1.8-1.81c0.44-0.76,0.66-1.59,0.66-2.49c0-0.74-0.14-1.42-0.42-2.02
	c0.76-1,1.14-2.11,1.14-3.33c0-0.71-0.14-1.39-0.42-2.04s-0.65-1.2-1.12-1.67c-0.47-0.47-1.03-0.84-1.67-1.11S22.42,6.3,21.71,6.3
	c-1.54,0-2.84,0.58-3.88,1.73c-0.78-0.41-1.67-0.61-2.65-0.61c-1.41,0-2.66,0.44-3.75,1.31s-1.77,1.99-2.07,3.35
	c-0.85,0.2-1.6,0.61-2.26,1.23s-1.11,1.35-1.37,2.18v0.04C5.72,15.58,5.71,15.62,5.71,15.63z M19.24,9
	c0.72-0.68,1.54-1.02,2.48-1.02c0.98,0,1.81,0.35,2.51,1.05s1.05,1.53,1.05,2.5c0,0.61-0.17,1.22-0.51,1.85
	c-0.96-0.96-2.11-1.43-3.47-1.43h-0.33C20.73,10.88,20.16,9.89,19.24,9z"/>
</svg>
